!!!SOCIAL_FUNCTION:	game songs
!!!PDT:	1913
!!!OTL: No_102_Song_of_the_Hand_Game.krn
!!!REG: Great_Lakes
!!!LANG: Non-Tone
!!!LING_GROUP: Algonquin
**kern	**kern
*staff2	*staff1
=1-	=1-
*clefF4	*clefF4
*k[b-e-a-d-]	*k[b-e-a-d-]
*M2/4	*M2/4
12GG^/	4c\
12r	.
12GG/	.
12GG^/	8c\L
12r	.
.	8c\J
12GG/	.
=2	=2
12GG^/	8.c\L
12r	.
12GG/	.
.	16A-\Jk
4r	8.A-\L
.	16A-\Jk
=3||	=3||
*M3/4	*M3/4
2.r	4c\
.	8c\L
.	8c\J
.	4c\
=4||	=4||
*M2/4	*M2/4
2r	4c\
.	8c\L
.	8c\J
=5	=5
2r	8.c\L
.	16A-\Jk
.	4A-\
=6||	=6||
*M3/4	*M3/4
2.r	4B-\
.	8B-\L
.	8B-\J
.	8B-\L
.	8A-\J
=7||	=7||
*M2/4	*M2/4
2r	4A-\
.	8F\L
.	8F\J
=8	=8
2r	8F/L
.	8C/J
.	4C/
=9||	=9||
*M3/4	*M3/4
2.r	4F\
.	8F\L
.	8F\J
.	4F\
=10	=10
2.r	4F\
.	8F\L
.	8F\J
.	8F/L
.	8C/J
=11||	=11||
*M2/4	*M2/4
2r	4F\
.	4C/
=12	=12
2r	4.C/
.	8C/
=13	=13
2r	2C/
==	==
*-	*-
